X: 106
P: No. CVI.
M: 2/4
L: 1/8
K: G
V: 1
{Bc}d2dd | dddd    | edcB    | A>Bcc |
{AB}c2cc | cccc    | dcBA    | G>ABB |\
c>ccd    | {d}c2BA | BGcA    | TF2G2 |]
V: 2 clef=bass middle=d
z |\
g2d>B | Ggfe  | d2D2  | f2d2 |\
fdfg  | abc'a | d'2d2 | g2G2 |\
gGgG  | dDdD  | aAaA  | dDD2 |\
f2d2  | a2d2  | g2c2  | d2G2 |]

